symbols/web/icecream/materialsymbolsoutlined/icecream_wght600gradN25fill1_48px.svg

<svg xmlns="http://www.w3.org/2000/svg" height="48" width="48"><path d="m23.9 46.25-9.1-18.5q-3.65.6-6.475-1.7-2.825-2.3-2.825-6.2 0-2.4 1.525-4.75t4.325-3.05q.95-4.8 4.575-7.625T24 1.6q4.5 0 8.075 2.825Q35.65 7.25 36.65 12q2.8.7 4.325 3.075Q42.5 17.45 42.5 19.85q0 3.85-2.925 6.175-2.925 2.325-6.325 1.725Zm0-8.1 5.65-11.05-.3-.35q-1.25.65-2.65.9t-2.4.25q-1.4 0-2.875-.25t-2.525-.9l-.3.3Z"/></svg>

<svg xmlns="http://www.w3.org/2000/svg" height="48" width="48"><path d="M23.9 46.25 14.8 27.75Q11.15 28.35 8.325 26.05Q5.5 23.75 5.5 19.85Q5.5 17.45 7.025 15.1Q8.55 12.75 11.35 12.05Q12.3 7.25 15.925 4.425Q19.55 1.6 24 1.6Q28.5 1.6 32.075 4.425Q35.65 7.25 36.65 12Q39.45 12.7 40.975 15.075Q42.5 17.45 42.5 19.85Q42.5 23.7 39.575 26.025Q36.65 28.35 33.25 27.75ZM23.9 38.15 29.55 27.1 29.25 26.75Q28 27.4 26.6 27.65Q25.2 27.9 24.2 27.9Q22.8 27.9 21.325 27.65Q19.85 27.4 18.8 26.75L18.5 27.05Z"/></svg>
